apps/common/mobile/resources/icons/common/icon-table-add-column-left-rtl.svg

<svg width="24" height="24" viewBox="0 0 24 24" xmlns="http://www.w3.org/2000/svg">
<path d="M3 3.54297C2.03351 3.54297 1.25 4.32647 1.25 5.29297V18.293C1.25008 19.2594 2.03356 20.043 3 20.043H10C10.4142 20.043 10.75 19.7071 10.75 19.293C10.75 18.8788 10.4142 18.543 10 18.543H8.75V15.043H14.5V13.8545C14.5 12.3358 15.7313 11.1036 17.25 11.1035C18.7672 11.1044 19.999 12.3354 19.999 13.8545L20 13.8535C20.0001 14.3069 19.9999 14.6993 20 15.043C20.4142 15.043 20.75 14.7072 20.75 14.293V5.29297C20.75 4.32647 19.9665 3.54297 19 3.54297H3ZM7.25 18.543H3C2.86198 18.543 2.75008 18.431 2.75 18.293V15.043H7.25V18.543ZM13.25 13.543H8.75V10.043H13.25V13.543ZM7.25 13.543H2.75V10.043H7.25V13.543ZM13.25 8.54297H8.75V5.04297H13.25V8.54297ZM7.25 8.54297H2.75V5.29297C2.75 5.1549 2.86193 5.04297 3 5.04297H7.25V8.54297Z" fill="#444444"/>
<path d="M17.25 13.1035C16.8358 13.1036 16.5 13.4393 16.5 13.8535L16.501 17.1035H13.25C12.8358 17.1035 12.5 17.4393 12.5 17.8535C12.5 18.2677 12.8358 18.6035 13.25 18.6035H16.501L16.5 21.8535C16.5 22.2677 16.8358 22.6035 17.25 22.6035C17.6641 22.6034 18 22.2676 18 21.8535L18.001 18.6035H21.25C21.6641 18.6034 22 18.2676 22 17.8535C22 17.4394 21.6641 17.1036 21.25 17.1035H18.001L18 13.8535C18 13.4394 17.6641 13.1037 17.25 13.1035Z" fill="#446ECA"/>
</svg>

<svg xmlns="http://www.w3.org/2000/svg" width="24" height="24" fill="none" viewBox="0 0 24 24">
  <g class="icon-table-add-column-left-rtl">
    <path fill="#444" fill-rule="evenodd" d="M3 3.543a1.75 1.75 0 0 0-1.75 1.75v13c0 .966.784 1.75 1.75 1.75h7a.75.75 0 0 0 0-1.5H8.75v-3.5h5.75v-1.188a2.751 2.751 0 0 1 2.75-2.752 2.751 2.751 0 0 1 2.749 2.752l.001-.002v1.19a.75.75 0 0 0 .75-.75v-9A1.75 1.75 0 0 0 19 3.543H3Zm4.25 15H3a.25.25 0 0 1-.25-.25v-3.25h4.5v3.5Zm6-5h-4.5v-3.5h4.5v3.5Zm-6 0h-4.5v-3.5h4.5v3.5Zm6-5h-4.5v-3.5h4.5v3.5Zm-6 0h-4.5v-3.25a.25.25 0 0 1 .25-.25h4.25v3.5Z" class="icon-fill-gray-primary" clip-rule="evenodd"/>
    <path fill="#446ECA" d="M18 13.853a.75.75 0 0 0-1.5 0v3.25h-3.25a.75.75 0 1 0 0 1.5h3.25v3.25a.75.75 0 1 0 1.5 0v-3.25h3.25a.75.75 0 0 0 0-1.5H18v-3.25Z" class="icon-fill-blue-primary"/>
  </g>
</svg>
